svg/blobs-icons/no-decorations/windflag.svg

<svg xmlns="http://www.w3.org/2000/svg" xmlns:xlink="http://www.w3.org/1999/xlink" preserveAspectRatio="xMidYMid" width="216" height="213" viewBox="0 0 216 213"><defs><style>.cls-3{fill:#fbb713}.cls-4{fill:#010100;opacity:.25}.cls-5{fill:#062635}.cls-6{fill:#060606;opacity:.35}.cls-8{fill:#fff}.cls-14{fill:#ededed}</style></defs><g id="group-4svg"><path d="M215.534 61.068S76.5 21.66 76.5 21.66s0 107.597.0 107.597S215.534 89.466 215.534 89.466s0-28.398.0-28.398z" id="path-1" class="cls-3" fill-rule="evenodd"/><path d="M92.177 58.711S79.963 25.579 79.963 25.579s-3.461-1.006-3.461-1.006S76.5 129.257 76.5 129.257 215.534 89.466 215.534 89.466s0-18.956.0-18.956-77.593 22.555-77.593 22.555C115.05 99.719 92.177 82.548 92.177 58.711z" id="path-2" class="cls-4" fill-rule="evenodd"/><path d="M26.128 212.101s-12.196.0-12.196.0.0-175.961.0-175.961 12.196.0 12.196.0.0 175.961.0 175.961z" id="path-3" class="cls-5" fill-rule="evenodd"/><path d="M26.128 46.206S13.932 61.882 13.932 61.882s0-25.742.0-25.742 12.196.0 12.196.0.0 10.066.0 10.066z" id="path-4" class="cls-6" fill-rule="evenodd"/><path d="M40.065 20.024c0 11.065-8.97 20.035-20.035 20.035-11.065.0-20.036-8.97-20.036-20.035C-.006 8.959 8.965-.011 20.03-.011c11.065.0 20.035 8.97 20.035 20.035z" id="path-5" class="cls-5" fill-rule="evenodd"/><path d="M32.371 8.268c0 2.487-2.016 4.503-4.503 4.503-2.487.0-4.503-2.016-4.503-4.503.0-2.487 2.016-4.503 4.503-4.503 2.487.0 4.503 2.016 4.503 4.503z" id="path-6" class="cls-8" fill-rule="evenodd"/><path d="M27.868 32.221c-11.065.0-20.036-8.97-20.036-20.034.0-3.51.982-6.761 2.568-9.63C4.226 5.97-.006 12.469-.006 20.024c0 11.065 8.971 20.035 20.036 20.035C27.585 40.059 34.084 35.828 37.497 29.653c-2.869 1.586-6.119 2.568-9.629 2.568z" id="path-7" class="cls-6" fill-rule="evenodd"/><path d="M103.644 75.266c0 29.607-12.153 53.608-27.144 53.608S49.357 104.873 49.357 75.266c0-29.605 12.152-53.606 27.143-53.606s27.144 24.001 27.144 53.606z" id="path-8" class="cls-3" fill-rule="evenodd"/><path d="M103.644 75.266c0 29.607-12.153 53.608-27.144 53.608S49.357 104.873 49.357 75.266c0-29.605 12.152-53.606 27.143-53.606s27.144 24.001 27.144 53.606z" id="path-9" class="cls-6" fill-rule="evenodd"/><path d="M77.257 21.418S22.782 75.891 22.782 75.891C22.55 76.124 22.173 76.124 21.941 75.891l-2.856-2.854C18.853 72.805 18.853 72.428 19.085 72.195L73.562 17.721C73.794 17.489 74.171 17.489 74.403 17.721l2.854 2.856C77.489 20.808 77.489 21.186 77.257 21.418z" id="path-10" class="cls-5" fill-rule="evenodd"/><path d="M15.08 71.263s59.576 59.575 59.576 59.575C74.885 131.066 75.257 131.066 75.487 130.838L78.307 128.018C78.536 127.788 78.536 127.417 78.307 127.188L18.73 67.613C18.501 67.384 18.129 67.384 17.9 67.613L15.08 70.433C14.85 70.662 14.85 71.034 15.08 71.263z" id="path-11" class="cls-5" fill-rule="evenodd"/><path d="M172.111 64.772C171.795 64.772 171.474 64.73 171.155 64.641L118.971 50.268C117.059 49.742 115.935 47.765 116.463 45.852 116.991 43.94 118.971 42.809 120.88 43.344l52.183 14.372C174.975 58.241 176.099 60.219 175.571 62.132 175.133 63.725 173.688 64.772 172.111 64.772z" id="path-12" class="cls-14" fill-rule="evenodd"/></g></svg>

<svg xmlns="http://www.w3.org/2000/svg" xmlns:xlink="http://www.w3.org/1999/xlink" preserveAspectRatio="xMidYMid" width="216" height="213" viewBox="0 0 216 213">
  <defs>
    <style>

      .cls-3 {
        fill: #fbb713;
      }

      .cls-4 {
        fill: #010100;
        opacity: 0.25;
      }

      .cls-5 {
        fill: #062635;
      }

      .cls-6 {
        fill: #060606;
        opacity: 0.35;
      }

      .cls-8 {
        fill: #ffffff;
      }

      .cls-14 {
        fill: #ededed;
      }
    </style>
  </defs>
  <g id="group-4svg">
    <path d="M215.534,61.068 C215.534,61.068 76.500,21.660 76.500,21.660 C76.500,21.660 76.500,129.257 76.500,129.257 C76.500,129.257 215.534,89.466 215.534,89.466 C215.534,89.466 215.534,61.068 215.534,61.068 Z" id="path-1" class="cls-3" fill-rule="evenodd"/>
    <path d="M92.177,58.711 C92.177,58.711 79.963,25.579 79.963,25.579 C79.963,25.579 76.502,24.573 76.502,24.573 C76.502,24.573 76.500,129.257 76.500,129.257 C76.500,129.257 215.534,89.466 215.534,89.466 C215.534,89.466 215.534,70.510 215.534,70.510 C215.534,70.510 137.941,93.065 137.941,93.065 C115.050,99.719 92.177,82.548 92.177,58.711 Z" id="path-2" class="cls-4" fill-rule="evenodd"/>
    <path d="M26.128,212.101 C26.128,212.101 13.932,212.101 13.932,212.101 C13.932,212.101 13.932,36.140 13.932,36.140 C13.932,36.140 26.128,36.140 26.128,36.140 C26.128,36.140 26.128,212.101 26.128,212.101 Z" id="path-3" class="cls-5" fill-rule="evenodd"/>
    <path d="M26.128,46.206 C26.128,46.206 13.932,61.882 13.932,61.882 C13.932,61.882 13.932,36.140 13.932,36.140 C13.932,36.140 26.128,36.140 26.128,36.140 C26.128,36.140 26.128,46.206 26.128,46.206 Z" id="path-4" class="cls-6" fill-rule="evenodd"/>
    <path d="M40.065,20.024 C40.065,31.089 31.095,40.059 20.030,40.059 C8.965,40.059 -0.006,31.089 -0.006,20.024 C-0.006,8.959 8.965,-0.011 20.030,-0.011 C31.095,-0.011 40.065,8.959 40.065,20.024 Z" id="path-5" class="cls-5" fill-rule="evenodd"/>
    <path d="M32.371,8.268 C32.371,10.755 30.355,12.771 27.868,12.771 C25.381,12.771 23.365,10.755 23.365,8.268 C23.365,5.781 25.381,3.765 27.868,3.765 C30.355,3.765 32.371,5.781 32.371,8.268 Z" id="path-6" class="cls-8" fill-rule="evenodd"/>
    <path d="M27.868,32.221 C16.803,32.221 7.832,23.251 7.832,12.187 C7.832,8.677 8.814,5.426 10.400,2.557 C4.226,5.970 -0.006,12.469 -0.006,20.024 C-0.006,31.089 8.965,40.059 20.030,40.059 C27.585,40.059 34.084,35.828 37.497,29.653 C34.628,31.239 31.378,32.221 27.868,32.221 Z" id="path-7" class="cls-6" fill-rule="evenodd"/>
    <path d="M103.644,75.266 C103.644,104.873 91.491,128.874 76.500,128.874 C61.509,128.874 49.357,104.873 49.357,75.266 C49.357,45.661 61.509,21.660 76.500,21.660 C91.491,21.660 103.644,45.661 103.644,75.266 Z" id="path-8" class="cls-3" fill-rule="evenodd"/>
    <path d="M103.644,75.266 C103.644,104.873 91.491,128.874 76.500,128.874 C61.509,128.874 49.357,104.873 49.357,75.266 C49.357,45.661 61.509,21.660 76.500,21.660 C91.491,21.660 103.644,45.661 103.644,75.266 Z" id="path-9" class="cls-6" fill-rule="evenodd"/>
    <path d="M77.257,21.418 C77.257,21.418 22.782,75.891 22.782,75.891 C22.550,76.124 22.173,76.124 21.941,75.891 C21.941,75.891 19.085,73.037 19.085,73.037 C18.853,72.805 18.853,72.428 19.085,72.195 C19.085,72.195 73.562,17.721 73.562,17.721 C73.794,17.489 74.171,17.489 74.403,17.721 C74.403,17.721 77.257,20.577 77.257,20.577 C77.489,20.808 77.489,21.186 77.257,21.418 Z" id="path-10" class="cls-5" fill-rule="evenodd"/>
    <path d="M15.080,71.263 C15.080,71.263 74.656,130.838 74.656,130.838 C74.885,131.066 75.257,131.066 75.487,130.838 C75.487,130.838 78.307,128.018 78.307,128.018 C78.536,127.788 78.536,127.417 78.307,127.188 C78.307,127.188 18.730,67.613 18.730,67.613 C18.501,67.384 18.129,67.384 17.900,67.613 C17.900,67.613 15.080,70.433 15.080,70.433 C14.850,70.662 14.850,71.034 15.080,71.263 Z" id="path-11" class="cls-5" fill-rule="evenodd"/>
    <path d="M172.111,64.772 C171.795,64.772 171.474,64.730 171.155,64.641 C171.155,64.641 118.971,50.268 118.971,50.268 C117.059,49.742 115.935,47.765 116.463,45.852 C116.991,43.940 118.971,42.809 120.880,43.344 C120.880,43.344 173.063,57.716 173.063,57.716 C174.975,58.241 176.099,60.219 175.571,62.132 C175.133,63.725 173.688,64.772 172.111,64.772 Z" id="path-12" class="cls-14" fill-rule="evenodd"/>
  </g>
</svg>
